X:175
M:3/4
L:1/4
K:G
E | G2 F | E2 D | (G2 A) | B2 B | B2 B | B2 A | G2 F | !fermata!G2 E | G2 F | E2 D | (G2 A) | B2 B | B2 B | B2 A | G2 F | !fermata!G2 G | G2 B | A2 B | (G F2) | E2 E | A2 A | (F G) E | !fermata!D2 D | G2 G | A2 A | B3 | G2 G | c2 c | B2 B | !fermata!A2 A | B2 B | c2 c | d3 | G2 B | A2 D | F E2 | !fermata!D2 D | G2 G | F2 E | A3 | A2 !sintro!B | c2 B | (G B) A | !fermata!G2 !eintro!|]
